X: 27407
T: Mogi Laddyr
R: reel
M: 4/4
K: Dmajor
d>efd gfge|defd gecA|defe/d/ gfga|geAc d2d2|
d>efd gfge|defd gecA|defe/d/ gfga|geAc d2df/g/|
|:a>baf gage|fgfd gedc|defd gfge|
defd gecA|def/e/f/d/ gfga|geAc d2df/g/:|

